X: 10861
M: 3/8
L: 1/16
K: A
(3(efg) !f!|\
a2e2e2 | e3fed | c2A2A2 | A3cBA !p!|\
a2e2e2 | e3fed | c2A2A2 | A4e2 |\
f2afaf | e2cece | d2B2G2 | A4 :|
|: A2 |\
a2e2e2 | e3fed | c2A2A2 | A4e2 |\
fefgaf | gabgae | d2B2G2 | A4 :|
|: z2 |\
c2e2e2 | ^e2f2f2 | B2d2d2 | ^d2e2e2 |\
c2e2e2 | ^e2f2f2 | B2d2d2 | ^d2e2e2 |\
agagf^e | fedcBA | dfecdB | A4  :|


